X: 20772
T: the Irish Pot stick
%R: slip-jig
B: James Oswald "The Caledonian Pocket Companion" v.2 p.77 #2
Z: 2019 John Chambers <jc:trillian.mit.edu>
M: 9/8
L: 1/8
K: D
|: "_Brisk"\
FGA ABc d3  | FGA ABc B3 :: d2d d2d cBA | B2B B2B AFD ::\
G3  BGE BGE |
G3 BGE AFD :: fga ABc d2a | fed BdB AFD ::\
D2D D2a f2a | B3 AdB AFD :|
|:\
f3 (e2d) (B2d) | AFA BdB AFD ::\
D2d D2f D2a | fed BdB AFD :: G3 (B2G) (E2G) | (F2A) (G2B) AFD :|
